images_files/dinosaursVG/brachiosaurus.svg

<svg width="733" height="667" viewBox="0 0 733 667" fill="none" xmlns="http://www.w3.org/2000/svg">
<g filter="url(#filter0_d_109_538)">
<path d="M729 659C598.141 659 505.861 615.901 432.492 586.609V659H366.601V626.182L299.92 560.15H201.875V659H135.984V557.58C57.8708 541.863 4.16995 446.901 4.2029 298.494V163.366C4.2029 104.484 33.7878 68.8326 68.7098 50.0181V49.425C68.7098 22.1424 90.8491 0 118.128 0C139.806 0 157.992 14.0367 164.68 33.4443L167.546 32.95C185.732 32.95 200.491 47.7116 200.491 65.9C200.491 84.0884 185.732 98.85 167.546 98.85H134.864C119.676 99.0807 70.0936 104.452 70.0936 163.366V265.544C68.7098 362.45 146.033 362.186 159.639 362.45H267.074C339.652 362.45 404.258 396.158 446.395 448.68C446.692 449.043 447.054 449.306 447.35 449.669C570.467 609.575 729 626.05 729 626.05V659Z" fill="#2E7D32"/>
</g>
<g opacity="0.4" filter="url(#filter1_d_109_538)">
<path d="M233.929 494.287H201.663V560.172H299.748L233.929 494.287ZM432.373 527.229V586.625C505.772 615.911 598.089 659 729 659C729 659 556.89 638.872 432.373 527.229ZM10.3713 382.446C26.8836 481.9 73.7507 545.15 135.746 557.603V492.178C48.043 476.86 19.0065 413.841 10.3713 382.446Z" fill="white"/>
</g>
<defs>
<filter id="filter0_d_109_538" x="0.202881" y="0" width="732.797" height="667" filterUnits="userSpaceOnUse" color-interpolation-filters="sRGB">
<feFlood flood-opacity="0" result="BackgroundImageFix"/>
<feColorMatrix in="SourceAlpha" type="matrix" values="0 0 0 0 0 0 0 0 0 0 0 0 0 0 0 0 0 0 127 0" result="hardAlpha"/>
<feOffset dy="4"/>
<feGaussianBlur stdDeviation="2"/>
<feComposite in2="hardAlpha" operator="out"/>
<feColorMatrix type="matrix" values="0 0 0 0 0 0 0 0 0 0 0 0 0 0 0 0 0 0 0.25 0"/>
<feBlend mode="normal" in2="BackgroundImageFix" result="effect1_dropShadow_109_538"/>
<feBlend mode="normal" in="SourceGraphic" in2="effect1_dropShadow_109_538" result="shape"/>
</filter>
<filter id="filter1_d_109_538" x="6.37134" y="382.446" width="726.629" height="284.554" filterUnits="userSpaceOnUse" color-interpolation-filters="sRGB">
<feFlood flood-opacity="0" result="BackgroundImageFix"/>
<feColorMatrix in="SourceAlpha" type="matrix" values="0 0 0 0 0 0 0 0 0 0 0 0 0 0 0 0 0 0 127 0" result="hardAlpha"/>
<feOffset dy="4"/>
<feGaussianBlur stdDeviation="2"/>
<feComposite in2="hardAlpha" operator="out"/>
<feColorMatrix type="matrix" values="0 0 0 0 0 0 0 0 0 0 0 0 0 0 0 0 0 0 0.25 0"/>
<feBlend mode="normal" in2="BackgroundImageFix" result="effect1_dropShadow_109_538"/>
<feBlend mode="normal" in="SourceGraphic" in2="effect1_dropShadow_109_538" result="shape"/>
</filter>
</defs>
</svg>

<svg xmlns="http://www.w3.org/2000/svg" width="733" height="667" fill="none" xmlns:v="https://vecta.io/nano"><g filter="url(#A)"><path d="M729 659c-130.859 0-223.139-43.099-296.508-72.391V659h-65.891v-32.818L299.92 560.15h-98.045V659h-65.891V557.58C57.871 541.863 4.17 446.901 4.203 298.494V163.366c0-58.882 29.585-94.533 64.507-113.348v-.593C68.71 22.142 90.849 0 118.128 0c21.678 0 39.864 14.037 46.552 33.444l2.866-.494c18.186 0 32.945 14.762 32.945 32.95s-14.759 32.95-32.945 32.95h-32.682c-15.188.231-64.77 5.602-64.77 64.516v102.178c-1.384 96.906 75.939 96.642 89.545 96.906h107.435c72.578 0 137.184 33.708 179.321 86.23.297.363.659.626.955.989C570.467 609.575 729 626.05 729 626.05V659z" fill="#2e7d32"/></g><g opacity=".4" filter="url(#B)"><path d="M233.929 494.287h-32.266v65.885h98.085l-65.819-65.885zm198.444 32.942v59.396C505.772 615.911 598.089 659 729 659c0 0-172.11-20.128-296.627-131.771zM10.371 382.446C26.884 481.9 73.751 545.15 135.746 557.603v-65.425C48.043 476.86 19.007 413.841 10.371 382.446z" fill="#fff"/></g><defs><filter id="A" x=".203" y="0" width="732.797" height="667" filterUnits="userSpaceOnUse" color-interpolation-filters="sRGB"><feFlood flood-opacity="0" result="A"/><feColorMatrix in="SourceAlpha" values="0 0 0 0 0 0 0 0 0 0 0 0 0 0 0 0 0 0 127 0" result="B"/><feOffset dy="4"/><feGaussianBlur stdDeviation="2"/><feComposite in2="B" operator="out"/><feColorMatrix values="0 0 0 0 0 0 0 0 0 0 0 0 0 0 0 0 0 0 0.25 0"/><feBlend in2="A"/><feBlend in="SourceGraphic"/></filter><filter id="B" x="6.371" y="382.446" width="726.629" height="284.554" filterUnits="userSpaceOnUse" color-interpolation-filters="sRGB"><feFlood flood-opacity="0" result="A"/><feColorMatrix in="SourceAlpha" values="0 0 0 0 0 0 0 0 0 0 0 0 0 0 0 0 0 0 127 0" result="B"/><feOffset dy="4"/><feGaussianBlur stdDeviation="2"/><feComposite in2="B" operator="out"/><feColorMatrix values="0 0 0 0 0 0 0 0 0 0 0 0 0 0 0 0 0 0 0.25 0"/><feBlend in2="A"/><feBlend in="SourceGraphic"/></filter></defs></svg>
